X: 32704
T: Polka D'Alfred Couillard
R: barndance
M: 4/4
K: Dmajor
|:a2 a2 a4|B4- B4|f2 e>f g>ec>d|(3efe (3ded (3cdc (3BcB|
a2 a2 a4|B4- B4|f2e>f g>ec>d|e2 d2 d4:|

